static/elements/floppy_1color.svg

<svg viewBox="0 0 1092 1092" xmlns="http://www.w3.org/2000/svg"><g fill="#004153"><path d="m546 0c-301.547 0-546 244.453-546 546s244.453 546 546 546 546-244.452 546-546c0-226.881-244.452-546-546-546zm316.667 899.333h-633.334v-661.333h186.334v-.333h336v.333h27.666l83.334 76.679z"/><path d="m727 498.333v-233h-394v233zm-49-205.666v177.333h-82.667v-177.333z"/><path d="m791.262 847.639c0 11.395-10.865 20.633-24.268 20.633h-458.661v-281.009c0-11.26 10.617-20.44 23.858-20.63l434.393-6.233c13.561-.2 24.678 9.1 24.678 20.631z"/></g></svg>

<svg xmlns="http://www.w3.org/2000/svg" viewBox="0 0 1092 1092">
  <defs>
    <style>
      .cls-1 {
        fill: #004153;
      }
    </style>
  </defs>
  <g id="Layer_2" data-name="Layer 2">
    <g id="Layer_1-2" data-name="Layer 1">
      <g>
        <g>
          <path class="cls-1" d="M546,0C244.453,0,0,244.453,0,546s244.453,546,546,546,546-244.452,546-546C1092,319.119,847.548,0,546,0ZM862.667,899.333H229.333V238H415.667v-.333h336V238h27.666l83.334,76.679Z"/>
          <path class="cls-1" d="M727,498.333v-233H333v233ZM678,292.667V470H595.333V292.667Z"/>
        </g>
        <path class="cls-1" d="M791.262,847.639c0,11.395-10.865,20.633-24.268,20.633H308.333V587.263c0-11.26,10.617-20.44,23.858-20.63L766.584,560.4c13.561-.2,24.678,9.1,24.678,20.631Z"/>
      </g>
    </g>
  </g>
</svg>
